icons/agda.svg

<!--
  - The MIT License (MIT)
  -
  - Copyright (c) 2015-2024 Elior "Mallowigi" Boukhobza
  -
  - Permission is hereby granted, free of charge, to any person obtaining a copy
  - of this software and associated documentation files (the "Software"), to deal
  - in the Software without restriction, including without limitation the rights
  - to use, copy, modify, merge, publish, distribute, sublicense, and/or sell
  - copies of the Software, and to permit persons to whom the Software is
  - furnished to do so, subject to the following conditions:
  -
  - The above copyright notice and this permission notice shall be included in all
  - copies or substantial portions of the Software.
  -
  - THE SOFTWARE IS PROVIDED "AS IS", WITHOUT WARRANTY OF ANY KIND, EXPRESS OR
  - IMPLIED, INCLUDING BUT NOT LIMITED TO THE WARRANTIES OF MERCHANTABILITY,
  - FITNESS FOR A PARTICULAR PURPOSE AND NONINFRINGEMENT. IN NO EVENT SHALL THE
  - AUTHORS OR COPYRIGHT HOLDERS BE LIABLE FOR ANY CLAIM, DAMAGES OR OTHER
  - LIABILITY, WHETHER IN AN ACTION OF CONTRACT, TORT OR OTHERWISE, ARISING FROM,
  - OUT OF OR IN CONNECTION WITH THE SOFTWARE OR THE USE OR OTHER DEALINGS IN THE
  - SOFTWARE.
  -
  -->

<svg  version="1.1" xmlns="http://www.w3.org/2000/svg" viewBox="0 0 512 512" width="16px" height="16px">
  <path fill="#BDBDBD" fill-rule="evenodd" data-iconColor="Agda"
        d="M426.9336548,54.1900978L261.2403259,219.8834076c-7.4750061,6.7402649-17.1710968-3.3855591-10.544754-10.544754L416.3892822,43.6453514C423.436676,36.9055557,433.717041,46.7313461,426.9336548,54.1900978z M499.2359619,85.0686798l-82.8466797,82.8466644c-6.7429504,7.412735,3.4461975,17.2576599,10.5443726,10.5447388l82.8466187-82.8466568C516.4232788,88.0451202,506.2186584,78.3358841,499.2359619,85.0686798z M499.2359619,43.6453514l-82.8466797,82.8466492c-6.7814026,7.4044495,3.1001587,17.2036591,10.5443726,10.544754l82.8466187-82.8466644C516.4990845,46.6565361,506.4999695,37.1499901,499.2359619,43.6453514z M209.2722473,43.6453514l-82.8466568,82.8466492c-6.7649841,7.2203064,3.0957718,17.2232819,10.5447464,10.544754l82.8466644-82.8466644C226.4493713,46.9291267,216.7272034,36.921711,209.2722473,43.6453514z M178.3936615,137.0367584l82.8466644-82.8466644c6.6011353-7.0034637-2.9941711-17.398365-10.544754-10.5447464l-82.8466492,82.8466492C161.1990814,133.8087006,171.0168152,143.6264191,178.3936615,137.0367584z M255.9679413,470.6073914c84.3307648,0.012085,169.9110565-64.1964722,173.1497345-173.1495056l-0.0000305-79.7583008l80.6626282-80.6628265c6.6898804-7.4606781-3.3494263-17.2643051-10.5443115-10.544754l-82.8466797,82.8466644c-1.3984375,1.3982391-2.184021,3.2948456-2.184021,5.2723694v82.8468475c-2.4832458,101.8160095-82.3485718,158.2371216-158.2373199,158.2371216c-69.5493317,0-155.3547363-52.1512756-158.2371216-158.2371216l0.0000076-82.8468475c0-4.1180573-3.3383408-7.4562073-7.4561996-7.4562073H25.4289207L178.3936615,54.1900978c6.6220093-7.0034561-2.9238739-17.2984962-10.5447388-10.5447464L2.1556048,209.3386536c-4.5056467,4.6415405-1.5654514,12.7285919,5.2723722,12.7285919l75.3904572-0.0000153l-0.0000076,75.3906555C87.38797,412.094635,175.8364563,470.5959473,255.9679413,470.6073914z M118.0283813,160.760788c0-8.5777893-9.3497391-13.9680176-16.7891388-9.6791229s-7.4393997,15.0693512,0,19.3582458S118.0283813,169.3385773,118.0283813,160.760788z M159.4518127,160.760788c0-8.5777893-9.3497467-13.9680176-16.7891388-9.6791229c-7.4394073,4.2888947-7.4394073,15.0693512,0,19.3582458C150.102066,174.7288055,159.4518127,169.3385773,159.4518127,160.760788z"/>
</svg>

<svg xmlns="http://www.w3.org/2000/svg" viewBox="0 0 512 512"><path fill="#bdbdbd" fill-rule="evenodd" d="M426.934 54.19 261.24 219.883c-7.475 6.74-17.17-3.385-10.544-10.544L416.389 43.645c7.048-6.74 17.328 3.086 10.545 10.545m72.302 30.879-82.847 82.846c-6.743 7.413 3.446 17.258 10.545 10.545l82.846-82.847c6.643-7.568-3.561-17.277-10.544-10.544m0-41.424-82.847 82.847c-6.781 7.404 3.1 17.204 10.545 10.545L509.78 54.19c6.72-7.533-3.28-17.04-10.544-10.545m-289.964 0-82.846 82.847c-6.765 7.22 3.095 17.223 10.544 10.545l82.847-82.847c6.632-7.26-3.09-17.268-10.545-10.545m-30.878 93.392L261.24 54.19c6.601-7.003-2.994-17.398-10.544-10.545l-82.847 82.847c-6.65 7.317 3.168 17.134 10.545 10.545m77.574 333.57c84.33.012 169.911-64.196 173.15-173.15V217.7l80.662-80.663c6.69-7.46-3.35-17.265-10.544-10.545l-82.847 82.847a7.46 7.46 0 0 0-2.184 5.272v82.847c-2.483 101.816-82.348 158.237-158.237 158.237-69.55 0-155.355-52.151-158.237-158.237V214.61a7.456 7.456 0 0 0-7.456-7.456H25.429L178.394 54.19c6.622-7.003-2.924-17.298-10.545-10.545L2.156 209.34c-4.506 4.64-1.566 12.727 5.272 12.727h75.39v75.39c4.57 114.638 93.018 173.139 173.15 173.15m-137.94-309.846c0-8.578-9.35-13.968-16.789-9.68s-7.44 15.07 0 19.359 16.79-1.101 16.79-9.68m41.424 0c0-8.578-9.35-13.968-16.79-9.68-7.439 4.29-7.439 15.07 0 19.359 7.44 4.289 16.79-1.101 16.79-9.68" data-iconColor="Agda"/></svg>
